!!!SOCIAL_FUNCTION:	cheyenne war song
!!!PDT:	1936
!!!OTL: No_13_Song_of_the_Elk_Soldiers.krn
!!!REG: Oklahoma and Montana
!!!LANG: Tone
!!!LING_GROUP: Algonquin
**kern
*staff1
=1-
*clefF4
*k[b-e-a-d-]
*M2/4
2e-\
=2
12e-\L
12c\
12c\J
8c\
8r
=3
12c\L
12A-\
12A-\J
8A-\
8r
=4
12A-\L
12F\
12F\J
8E-\
16r
16E-\
=5
12A-\L
12A-\
12A-\J
8A-\
8r
=6
12c\L
12A-\
12A-\J
8A-\
8r
=7
12A-\L
12F\
12F\J
8E-\
16r
16E-\
=8
12A-\L
12A-\
12A-\J
8A-\
8r
=9
12A-\L
12F\
12F\J
4E-\
=10
12E-/L
12C/
12C/J
8AA-/
16r
16AA-/
=11
12E-\L
12E-\
12E-\J
8E-\
8r
=12
12E-/L
12C/
12C/J
8C/
8r
=13
12C/L
12C/
12C/J
8AA-/
8r
=14
4.AA-/
8AA-/
=15
4AA-/
4AA-/
=16
2r
=17
8A-\L
8F\J
8F\L
16E-\Jk
16r
=18
8F\L
16A-\L
16A-\JJ
8A-\L
8A-\J
=19
8c\L
8A-\J
16A-\LK
8A-\J
16r
=20
8A-\L
8F\J
8E-\
8r
=21
8E-\L
16A-\L
16A-\JJ
16A-\LK
8.A-\J
=22
8A-\L
8F\J
4E-\
=23
8E-/L
16C/L
16C/JJ
8AA-/
16r
16AA-/
=24
12E-\L
12E-\
12E-\J
8E-\
8r
=25
12E-/L
12C/
12C/J
8C/
8r
=26
12C/L
12C/
12C/J
8AA-/
8r
=27
4.AA-/
8AA-/
=28
4AA-/
8AA-/
8r
==
*-
